X:1
T:Come Close to the Savior
T:Horatio Richmond Palmer
T:Come Close to the Savior
T:Public Domain
T:Public Domain
T:Public Domain
T:Public Domain
C:Horatio Richmond Palmer
Z:Public Domain
%%score ( 1 2 ) ( 3 4 )
L:1/8
M:4/4
K:Eb
V:1 treble 
V:2 treble 
V:3 bass 
V:4 bass 
V:1
 [GB]2 (3[^F=A][GB][_Ac] [GB]2 (3(GAB) | [ce]2 (3[=Bd][ce][df] [ce]2 [Ac]2 | %2
w: 1.~Come close to the Sav- ior, * *|lov- ing Re- deem- er, O|
w: 2.~Come close to the Sav- ior, * *|call- eth thee gent- ly, Draw|
w: 3.~Come close to the Sav- ior, * *|plea- sures are fleet- ing, But|
 [GB]2 (3[^F=A][GB][_Ac] [GB]2 [EG]2 | [DF]2 (3DFG [AB]4 | [GB]2 (3[^F=A][GB][_Ac] [GB]2 (3(GAB) | %5
w: sor- row- ing heart op- pressed|(sore- ly oppressed); Life’s jour-|is drear- y, thy spir- it * *|
w: near to thy Fa- ther’s throne|(thy Fa- ther’s~throne); His eyes|be- hold thee, His mer- cy * *|
w: Je- sus will care for thee|(He’ll care for~thee); What- ev-|may grieve thee, He nev- er * *|
 [ce]2 (3[=Bd][ce][df] [ce]2 [Ac]2 | [GB]2 (3[Ge][GB][FA] [EG]2 [DF]2 | E6 z2 | %8
w: wear- y; O come un- to|Him and rest. Come close to|the|
w: fold thee, Why car- ry thy|grief a- lone? Come close to|the|
w: leave thee, Thy strength as thy|day shall be. Come close to|the|
 [DF]2 (3[^C=E][DF][_EG] [DF]2 [FA]2 | [EG]2 (3[DF][EG][FA] [EG]2 [GB]2 | %10
w: ior, O why dost thou lin-|ger? He know- eth thy heart|
w: ior, O trust and re- mem-|ber, Thro’ tri- als our souls|
w: ior, O come as a bird-|ling Flies back to its par-|
 [F=A]2 (3[=EG][FA][GB] [FA]2 [_Ec]2 | D2 (3EFG [AB]4 | [GB]2 (3[^F=A][GB][_Ac] [GB]2 (3(GAB) | %13
w: op- pressed (sore- ly oppressed). His|prom- ise be- liev- ing,|mes- sage re- ceiv- ing, O * *|
w: are blest (rich- ly are~blest). What-|ev- er be- tide thee,|ref- uge will hide thee, O * *|
w: ent nest (flies to its~nest). Where|peace like a ri- ver,|on- ward for- ev- er, O * *|
 [ce]2 (3[=Bd][ce][df] [ce]2 [Ac]2 | [GB]2 (3[Ge][GB][FA] [EG]2 [DF]2 | E6 z2 || %16
w: un- to Him and rest. Peace-|ful- ly, tran- quil- ly, ten-|der-|
w: un- to Him and rest. *|||
w: un- to Him and rest. *|||
"^Refrain" (3[DF][DF][DF] (3[DF][EG][FA] (3[EG][FA][^EG] (G[EG]) | %17
w: rest, Fold- ing thy wings like a dove, Peace- ful- *|
w: |
w: |
 (3[DF][DB][Fd] (3[Ec][DB][C=A] (3(DFG (3Bcd) | %18
w: tran- quil- ly, ten- der- ly rest, * * * * *|
w: |
w: |
 (3[Ge][Ae][Be] (3[ce][Bd][Ac] (3[GB][^F=A][GB] [EG]2 | %19
w: the arms * of His love. * * * *|
w: |
w: |
 (3[DF][Ac][GB] (3[FA][EG][DF] (3EDC [B,E]2 |] %20
w: |
w: |
w: |
V:2
 x6 e2 | x8 | x8 | x2 B2- x4 | x6 e2 | x8 | x8 | E6 x2 | x8 | x8 | x8 | B4- x4 | x6 e2 | x8 | x8 | %15
w: thy|||ney|is|||Sav-||||His|come|||
w: He|||will|en-|||Sav-||||thy|come|||
w: earth’s|||er|will|||Sav-||||flows|come|||
 E6 x2 || x6 B2 | x4 B2- =A2 | x8 | x4 E2- x2 |] %20
w: ly|ly,|Safe in|||
w: |||||
w: |||||
V:3
 .[E,,E,]2 .[E,,E,]2 .[E,,E,]2 (3(E,,F,,G,,) | .[A,,E,]2 .[A,,E,]2 .[A,,E,]2 .[A,,E,]2 | %2
w: ~ ~ ~ ~ * *|~ ~ ~ ~|
 [E,,E,]2 .[E,,E,]2 .[E,,E,]2 .[G,,E,]2 | z2 (3B,A,G, [B,,F,]4 | %4
w: ~ ~ ~ ~|~ ~ ~ ~|
 [E,,E,]2 [E,,E,]2 [E,,E,]2 (3(E,,F,,G,,) | .[A,,E,]2 .[A,,E,]2 .[A,,E,]2 .[A,,E,]2 | %6
w: * ~ ~ ~ * *|~ ~ ~ ~|
 .[E,,E,]2 (3E,,G,,A,, z2 (3(B,=A,_A,) | [E,G,]6 z2 | B,,8- | B,,8 | C,4- (3C,D,=E, (3F,G,=A, | %11
w: ~ ~ ~ ~ * * *||~||~ * ~ ~ ~ ~ ~|
 B,A, (3G,F,E, (D,C, B,,2) | [E,,E,]2 [E,,E,]2 [E,,E,]2 (3(E,,F,,G,,) | %13
w: ~ ~ ~ ~ ~ ~ * *|~ ~ ~ ~ * *|
 .[A,,E,]2 .[A,,E,]2 .[A,,E,]2 .[A,,E,]2 | .[E,,E,]2 (3E,,G,,A,, z2 (3(B,=A,_A,) | [E,G,]6 z2 || %16
w: ~ ~ ~ ~|~ ~ ~ ~ ~ * *||
 (3[B,,B,][B,,B,][B,,B,] (3[B,,A,][B,,G,][B,,F,] (3E,[E,E][E,C] [E,B,]2 | %17
w: ~ ~ ~ ~ ~ ~ ~ ~ ~ ~|
 (3[F,B,][F,B,][F,B,] (3[F,=A,][F,B,][F,C] (3B,_A,G, z B, | %18
w: ~ ~ ~ ~ ~ ~ ~ ~ like a|
 (3[E,B,][F,B,][G,E] (3[A,C][A,D][A,E] (3[E,E][E,C][E,B,] [E,B,]2 | %19
w: * ~ ~ ~ ~ ~ ~ ~ ~ ~|
 (3[B,,B,][B,,B,][B,,B,] (3[B,,B,][B,,B,][B,,B,] (3G,B,A, [E,G,]2 |] %20
w: ~ ~ ~ ~ ~ ~ in the arms of|
V:4
 x8 | x8 | x8 | B,,4- x4 | x8 | x8 | x4 B,,4 | x8 | x8 | x8 | x8 | x8 | x8 | x8 | x4 B,,4 | x8 || %16
w: |||~|||~||||||||~||
 x4 E, x3 | x4 B,,2- [B,,F,]2 | x8 | x4 E,2- x2 |] %20
w: ~|dove, *||His~love.|

